dist/svgs/unicons/solid/table.svg

<svg xmlns="http://www.w3.org/2000/svg" viewBox="0 0 24 24"><path d="M21 2H3c-.6 0-1 .4-1 1v18c0 .6.4 1 1 1h18c.6 0 1-.4 1-1V3c0-.6-.4-1-1-1zM10 20v-4h4v4h-4zm0-6v-4h4v4h-4zm-6-4h4v4H4v-4zm6-2V4h4v4h-4zm6 2h4v4h-4v-4zm4-2h-4V4h4v4zM8 4v4H4V4h4zM4 16h4v4H4v-4zm12 4v-4h4v4h-4z"/></svg>

<svg xmlns="http://www.w3.org/2000/svg" enable-background="new 0 0 24 24" viewBox="0 0 24 24"><path d="M21,2H3C2.4,2,2,2.4,2,3v18c0,0.6,0.4,1,1,1h18c0.6,0,1-0.4,1-1V3C22,2.4,21.6,2,21,2z M10,20v-4h4v4H10z M10,14v-4h4v4H10z M4,10h4v4H4V10z M10,8V4h4v4H10z M16,10h4v4h-4V10z M20,8h-4V4h4V8z M8,4v4H4V4H8z M4,16h4v4H4V16z M16,20v-4h4v4H16z"/></svg>
